src/assets/icons/inbox.svg

<svg width="14" height="14" viewBox="0 0 14 14" fill="none" xmlns="http://www.w3.org/2000/svg">
<g id="inbox">
<g clip-path="url(#clip0_156_4488)">
<path id="Vector" fill-rule="evenodd" clip-rule="evenodd" d="M0.102561 6.08556C0.0378924 6.1813 0.00012207 6.29668 0.00012207 6.42083V11.2206C0.00012207 12.4342 0.986478 13.4205 2.20002 13.4205H11.7996C13.0123 13.4205 13.9995 12.4342 13.9995 11.2206V6.44785C14.0049 6.32907 13.9751 6.20929 13.91 6.10485L10.9581 1.35385C10.7205 0.876275 10.2405 0.579487 9.70616 0.579487H4.2952C3.76082 0.579487 3.28164 0.876284 3.06965 1.30506L0.102561 6.08556ZM4.02961 7.0208C4.2352 8.47674 5.48795 9.59988 6.99988 9.59988C8.51101 9.59988 9.76455 8.47594 9.97095 7.0208H12.7996V11.2206C12.7996 11.7718 12.3508 12.2206 11.7996 12.2206H2.20002C1.64885 12.2206 1.20007 11.7718 1.20007 11.2206V7.0208H4.02961ZM4.59919 5.82085H1.67772L4.11521 1.88904C4.14961 1.82184 4.2176 1.77943 4.2944 1.77943H9.70376C9.78055 1.77943 9.84855 1.82104 9.90935 1.93784L12.3204 5.82085H9.39897C9.06779 5.82085 8.799 6.08964 8.799 6.42083V6.60002C8.799 7.59277 7.99103 8.39994 6.99908 8.39994C6.00712 8.39994 5.19916 7.59277 5.19916 6.60002V6.42083C5.19916 6.08964 4.93037 5.82085 4.59919 5.82085Z" fill="black"/>
</g>
</g>
<defs>
<clipPath id="clip0_156_4488">
<rect width="14" height="14" fill="white"/>
</clipPath>
</defs>
</svg>

<svg xmlns="http://www.w3.org/2000/svg" fill="none" viewBox="0 0 14 14"><g clip-path="url(#a)"><path fill="#000" fill-rule="evenodd" d="M.103 6.086A.6.6 0 0 0 0 6.42v4.8c0 1.213.986 2.2 2.2 2.2h9.6c1.212 0 2.2-.987 2.2-2.2V6.448a.6.6 0 0 0-.09-.343l-2.952-4.751A1.39 1.39 0 0 0 9.706.579h-5.41c-.535 0-1.014.297-1.226.726zm3.927.935A3.004 3.004 0 0 0 7 9.6 3.01 3.01 0 0 0 9.97 7.02H12.8v4.2c0 .552-.45 1-1 1H2.2c-.551 0-1-.448-1-1v-4.2zm.57-1.2H1.677l2.437-3.932a.2.2 0 0 1 .18-.11h5.409c.077 0 .145.042.205.159L12.32 5.82H9.4a.6.6 0 0 0-.6.6V6.6c0 .993-.808 1.8-1.8 1.8s-1.8-.807-1.8-1.8v-.18a.6.6 0 0 0-.6-.6" clip-rule="evenodd"/></g><defs><clipPath id="a"><path fill="#fff" d="M0 0h14v14H0z"/></clipPath></defs></svg>
